docs/images/devices-icon.svg

<svg viewBox="0 0 118.92 118.92" xmlns="http://www.w3.org/2000/svg"><circle cx="59.46" cy="59.46" fill="#ff495c" r="59.46"/><g fill="#f5f4f3"><path d="m59.46 74.81-15.35-15.35 15.35-15.34 15.35 15.34zm-10.07-15.35 10.07 10.07 10.07-10.07-10.07-10.07z"/><path d="m59.46 95-35.59-35.53 35.59-35.59 35.54 35.57zm-30.31-35.53 30.31 30.29 30.31-30.31-30.31-30.29z"/></g></svg>

<svg xmlns="http://www.w3.org/2000/svg" viewBox="0 0 118.92 118.92"><defs><style>.cls-1{fill:#ff495c;}.cls-2{fill:#f5f4f3;}</style></defs><title>devices-icon</title><g id="Layer_2" data-name="Layer 2"><g id="Layer_1-2" data-name="Layer 1"><circle class="cls-1" cx="59.46" cy="59.46" r="59.46"/><path class="cls-2" d="M59.46,74.81,44.11,59.46,59.46,44.12,74.81,59.46ZM49.39,59.46,59.46,69.53,69.53,59.46,59.46,49.39Z"/><path class="cls-2" d="M59.46,95,23.87,59.47,59.46,23.88,95,59.45ZM29.15,59.47,59.46,89.76,89.77,59.45,59.46,29.16Z"/></g></g></svg>
